X: 133
T: Lark in the Morning
M:6/8
R:jig
L:1/8
Z:added by Alf warnock alf0@rogers.com - www.alfwarnock.info/alfs
K:D
P:Intro and tag after chorus
| "Bm"D2C D2E|F2A F2E|D2B, "A"C2A,|"Bm"B,6-|B,6|
P: Verse and chorus
|:E|"D"F2E F2^G|A3 A2F|"A"E2D C2B,|A,3 B,2C|
"Bm"D2C D2E|F2A F2E|D2B, "A"C2A,|"Bm"B,6|
"Bm"B,2B, B,2B,|B3 A2F|"A"E2D C2B,|A,3 B,2C|
"Bm"D2C D2E|F2A F2E|D2B, "A"C2A,|"Bm"B,6-|B,3 :|

